dist/images/icons/open.svg

<svg width="24" height="20" viewBox="0 0 24 20" fill="none" xmlns="http://www.w3.org/2000/svg">
<path d="M5.21739 9.56522C6.49275 9.68116 7.53623 10.1739 8.34782 11.0435C9.15942 11.913 9.56522 13.0145 9.56522 14.3478C9.56522 15.7971 9.13043 16.9855 8.26087 17.913C7.3913 18.7826 6.28986 19.2174 4.95652 19.2174C3.44928 19.2174 2.23188 18.6667 1.30435 17.5652C0.434783 16.4638 0 14.7536 0 12.4348C0 7.97101 1.47826 4.11594 4.43478 0.869564C5.01449 0.289855 5.68116 0 6.43478 0C7.07246 0 7.62319 0.231884 8.08696 0.695653C8.55072 1.10145 8.78261 1.5942 8.78261 2.17391C8.78261 2.81159 8.55072 3.36232 8.08696 3.82609C6.57971 5.3913 5.62319 7.30435 5.21739 9.56522ZM19.6522 9.56522C20.9275 9.68116 21.971 10.1739 22.7826 11.0435C23.5942 11.913 24 13.0145 24 14.3478C24 15.7971 23.5652 16.9855 22.6957 17.913C21.8261 18.7826 20.7246 19.2174 19.3913 19.2174C17.8841 19.2174 16.6667 18.6667 15.7391 17.5652C14.8696 16.4638 14.4348 14.7536 14.4348 12.4348C14.4348 7.97101 15.913 4.11594 18.8696 0.869564C19.4493 0.289855 20.1159 0 20.8696 0C21.5072 0 22.058 0.231884 22.5217 0.695653C22.9855 1.10145 23.2174 1.5942 23.2174 2.17391C23.2174 2.81159 22.9855 3.36232 22.5217 3.82609C21.0145 5.3913 20.058 7.30435 19.6522 9.56522Z" fill="#C2C2C2"/>
</svg>

<svg width="24" height="20" fill="none" xmlns="http://www.w3.org/2000/svg"><path d="M5.217 9.565c1.276.116 2.32.609 3.13 1.479.812.869 1.218 1.97 1.218 3.304 0 1.45-.435 2.637-1.304 3.565-.87.87-1.971 1.304-3.304 1.304-1.508 0-2.725-.55-3.653-1.652C.434 16.464 0 14.754 0 12.435 0 7.97 1.478 4.115 4.435.87c.58-.58 1.246-.87 2-.87.637 0 1.188.232 1.652.696.464.405.696.898.696 1.478 0 .638-.232 1.188-.696 1.652-1.507 1.565-2.464 3.478-2.87 5.74zm14.435 0c1.275.116 2.319.609 3.13 1.479.812.869 1.218 1.97 1.218 3.304 0 1.45-.435 2.637-1.304 3.565-.87.87-1.971 1.304-3.305 1.304-1.507 0-2.724-.55-3.652-1.652-.87-1.101-1.304-2.811-1.304-5.13 0-4.464 1.478-8.32 4.435-11.565.58-.58 1.246-.87 2-.87.637 0 1.188.232 1.652.696.463.405.695.898.695 1.478 0 .638-.232 1.188-.695 1.652-1.507 1.565-2.464 3.478-2.87 5.74z" fill="#C2C2C2"/></svg>
